packages/core/src/svgs/music.svg

<svg width="24" height="24" viewBox="0 0 24 24" fill="none" xmlns="http://www.w3.org/2000/svg">
<g clip-path="url(#clip0_31_14463)">
<path d="M0 0H24V24H0V0Z" fill="#FBBF02"/>
<path d="M13.1357 5.24164C12.7605 5.17731 12.3806 5.14434 12 5.14307C10.7476 5.14302 9.51914 5.48595 8.44787 6.13465C7.37659 6.78336 6.50343 7.71306 5.92313 8.82287C5.34283 9.93269 5.07755 11.1802 5.15607 12.4302C5.2346 13.6801 5.65393 14.8846 6.36856 15.9131C6.83999 15.2231 7.92856 14.7431 9.18856 14.7431C10.0543 14.7431 10.8386 14.9702 11.3957 15.3388L13.1357 5.24164ZM16.7786 7.08878C17.9657 9.70735 16.9243 11.1088 16.9243 11.1088C16.1228 8.69164 13.7957 8.33592 13.7957 8.33592C13.7957 8.33592 12.2571 16.5859 12.2571 16.6931C12.2571 17.5841 11.31 18.3384 10.02 18.5655C11.0443 18.8735 12.1264 18.9377 13.1799 18.7531C14.2334 18.5685 15.2292 18.1402 16.0877 17.5023C16.9463 16.8645 17.6438 16.0347 18.1247 15.0793C18.6055 14.1239 18.8563 13.0694 18.8571 11.9998C18.8571 10.0712 18.06 8.33549 16.7786 7.08835V7.08878Z" fill="white"/>
</g>
<defs>
<clipPath id="clip0_31_14463">
<rect width="24" height="24" fill="white"/>
</clipPath>
</defs>
</svg>

<svg xmlns="http://www.w3.org/2000/svg" width="24" height="24" fill="none" viewBox="0 0 24 24"><g clip-path="url(#a)"><path fill="#FBBF02" d="M0 0h24v24H0z"/><path fill="#fff" d="M13.136 5.242A7 7 0 0 0 12 5.143a6.857 6.857 0 0 0-5.631 10.77c.471-.69 1.56-1.17 2.82-1.17.865 0 1.65.227 2.207.596zm3.643 1.847c1.187 2.618.145 4.02.145 4.02-.801-2.417-3.128-2.773-3.128-2.773s-1.539 8.25-1.539 8.357c0 .891-.947 1.645-2.237 1.872A6.86 6.86 0 0 0 18.857 12a6.83 6.83 0 0 0-2.078-4.912"/></g><defs><clipPath id="a"><path fill="#fff" d="M0 0h24v24H0z"/></clipPath></defs></svg>
